X: 878
T: Seamus Cooley's Jig
B: jims roots
M:6/8
L:1/8
R: jig
Q: 3/8=100
K:G
V:1 
%Q: 325
%Z: Transcribed by Bill Black
"G"BAB G2E | DB,D DEG | GAB AGE | "D"A3 AGA |
"G"BAB G2E | DB,D DEG | GAB "D"AGE | "G"G3 G3 :|
"G"BAB d3 | BAB d2B | "D"A3 AGE | ABA AGA |
|[1 "G"BAB d3 | BAB d2B | G2B "D"AGE | "G"G3 G3 :|
|[2 "G"BAB G2E | DB,D DEG | GAB "D"AGE | "G"G3 G3 ||
% abcbook-tune_id 6298c287326aed3cfda89b16


% abcbook-boost 0
% abcbook-tablature 
% abcbook-transpose 
% abcbook-lastupdated 1654178440246
% abcbook-soundfonts 
% abcbook-repeats 1


